X: 25241
T: Mama's Pet
R: jig
M: 6/8
K: Amixolydian
AG|:FAA Add|cAA cde|f3 ged|cAA GED|
DAA Add|cAA cde|f3 ged|1 cAG A2G:|2 cAG A2f||
|:g3 eaf|ged cde|f/g/af ged|cAA GED|
[1 gag eaf|ged cde|f/g/af ged|cAG A2f:|
[2 D3 Add|cAA cde|f3 ged|cAG A2G||

